assets/ic_pin.svg

<?xml version="1.0" encoding="UTF-8"?>
<svg height="120px" version="1.1" viewBox="0 0 120 120" width="120px"
    xmlns="http://www.w3.org/2000/svg">
    <title>emoji</title>
    <g fill="none" fill-rule="evenodd" id="Page-1" stroke="none" stroke-width="1">
        <g fill-rule="nonzero" id="ban-xet-minh-nhập-mk"
            transform="translate(-120.000000, -97.000000)">
            <g id="emoji" transform="translate(120.000000, 97.000000)">
                <circle cx="59.9378087" cy="59.9378087" fill="#168DE2" id="Oval"
                    r="59.9378087"></circle>
                <g fill="#2E6BCE" id="Group" transform="translate(0.000000, 7.492226)">
                    <path
                        d="M8.87374575,47.2270973 L0.229608634,47.2270973 C0.163986098,47.8544963 0.117112859,48.4821294 0.0889889153,49.1189031 L8.87374575,49.1189031 C9.38864898,49.1189031 9.81942389,48.6881376 9.81942389,48.1730002 C9.81942389,47.6484882 9.38864898,47.2270973 8.87374575,47.2270973 Z"
                        id="Path"></path>
                    <path
                        d="M19.1474327,47.2270973 L12.9568778,47.2270973 C12.4417405,47.2270973 12.0203496,47.6484882 12.0203496,48.1730002 C12.0203496,48.6881376 12.4417405,49.1189031 12.9568778,49.1189031 L19.1474327,49.1189031 C19.6717106,49.1189031 20.0933356,48.6881376 20.0933356,48.1730002 C20.0933356,47.6484882 19.6717106,47.2270973 19.1474327,47.2270973 Z"
                        id="Path"></path>
                    <path
                        d="M25.9228119,11.7898419 C25.4076746,11.7898419 24.9862837,12.2112328 24.9862837,12.7357448 C24.9862837,13.2508822 25.4076746,13.6816477 25.9228119,13.6816477 L26.0913215,13.6816477 C26.6064588,13.6816477 27.0374491,13.2508822 27.0374491,12.7357448 C27.0374491,12.2112328 26.6064495,11.7898419 26.0913215,11.7898419 L25.9228119,11.7898419 Z"
                        id="Path"></path>
                    <path
                        d="M41.7127814,12.7357448 C41.7127814,12.2112328 41.2913905,11.7898419 40.7668785,11.7898419 L30.1746877,11.7898419 C29.6595503,11.7898419 29.2381594,12.2112328 29.2381594,12.7357448 C29.2381594,13.2508822 29.6595503,13.6816477 30.1746877,13.6816477 L40.7668785,13.6816477 C41.2913905,13.6816477 41.7127814,13.2508822 41.7127814,12.7357448 Z"
                        id="Path"></path>
                    <path
                        d="M55.315845,0.157402305 C54.7915671,0.157402305 54.3701669,0.578793196 54.3701669,1.10330521 C54.3701669,1.61844258 54.7915578,2.04920812 55.315845,2.04920812 L55.475214,2.04920812 C55.9994919,2.04920812 56.421117,1.61844258 56.421117,1.10330521 C56.421117,0.578793196 55.9994919,0.157402305 55.475214,0.157402305 L55.315845,0.157402305 Z"
                        id="Path"></path>
                    <path
                        d="M103.340874,49.1189031 C102.825971,49.1189031 102.404345,49.5496686 102.404345,50.064806 C102.404345,50.5890839 102.825971,51.0107089 103.340874,51.0107089 L115.759473,51.0107089 C116.274376,51.0107089 116.705151,50.5890839 116.705151,50.064806 C116.705151,49.5496686 116.274385,49.1189031 115.759473,49.1189031 L103.340874,49.1189031 Z"
                        id="Path"></path>
                    <path
                        d="M64.531358,1.10330521 C64.531358,0.578793196 64.1005925,0.157402305 63.5854551,0.157402305 L59.5677114,0.157402305 C59.0431994,0.157402305 58.6218085,0.578793196 58.6218085,1.10330521 C58.6218085,1.61844258 59.0431994,2.04920812 59.5677114,2.04920812 L63.5854551,2.04920812 C64.1005925,2.04920812 64.531358,1.61844258 64.531358,1.10330521 Z"
                        id="Path"></path>
                    <path
                        d="M93.1654942,18.6774266 C93.1654942,18.1529146 93.5868851,17.7315237 94.1113971,17.7315237 L104.703588,17.7315237 C105.218725,17.7315237 105.640116,18.1529146 105.640116,18.6774266 C105.640116,19.192564 105.218725,19.6233295 104.703588,19.6233295 L94.1113971,19.6233295 C93.5868945,19.6233295 93.1654942,19.192564 93.1654942,18.6774266 L93.1654942,18.6774266 Z"
                        id="Path"></path>
                    <path
                        d="M90.0188904,17.7315237 C90.5431682,17.7315237 90.9645685,18.1529146 90.9645685,18.6774266 C90.9645685,19.192564 90.5431776,19.6233295 90.0188904,19.6233295 L89.8595213,19.6233295 C89.3352435,19.6233295 88.9136184,19.192564 88.9136184,18.6774266 C88.9136184,18.1529146 89.3352435,17.7315237 89.8595213,17.7315237 L90.0188904,17.7315237 Z"
                        id="Path"></path>
                    <path
                        d="M80.803368,18.6774266 C80.803368,18.1529146 81.2341335,17.7315237 81.7492709,17.7315237 L85.7670146,17.7315237 C86.2915266,17.7315237 86.7129175,18.1529146 86.7129175,18.6774266 C86.7129175,19.192564 86.2915266,19.6233295 85.7670146,19.6233295 L81.7492709,19.6233295 C81.2341335,19.6233295 80.803368,19.192564 80.803368,18.6774266 Z"
                        id="Path"></path>
                    <path
                        d="M93.6010735,50.064806 C93.6010735,50.5890839 94.031839,51.0107089 94.5469764,51.0107089 L99.2577416,51.0107089 C99.772879,51.0107089 100.203645,50.5890839 100.203645,50.064806 C100.203645,49.5496686 99.772879,49.1189031 99.2577416,49.1189031 L94.5469764,49.1189031 C94.031839,49.1189031 93.6010735,49.5496686 93.6010735,50.064806 L93.6010735,50.064806 Z"
                        id="Path"></path>
                    <path
                        d="M48.7602596,102.609604 C48.7602596,102.094701 49.1816505,101.663926 49.7061625,101.663926 L49.8655315,101.663926 C50.3898094,101.663926 50.8112097,102.094692 50.8112097,102.609604 C50.8112097,103.124742 50.3898188,103.555732 49.8655315,103.555732 L49.7061625,103.555732 C49.1816505,103.555732 48.7602596,103.124742 48.7602596,102.609604 Z"
                        id="Path"></path>
                    <path
                        d="M90.2951006,49.1189031 C89.7799633,49.1189031 89.3491977,49.5496686 89.3491977,50.064806 C89.3491977,50.5890839 89.7799633,51.0107089 90.2951006,51.0107089 L90.4544697,51.0107089 C90.9787475,51.0107089 91.4001478,50.5890839 91.4001478,50.064806 C91.4001478,49.5496686 90.9787569,49.1189031 90.4544697,49.1189031 L90.2951006,49.1189031 Z"
                        id="Path"></path>
                    <path
                        d="M69.6916381,1.10330521 C69.6916381,0.578793196 69.2702472,0.157402305 68.7457352,0.157402305 L67.6688214,0.157402305 C67.153684,0.157402305 66.7322931,0.578793196 66.7322931,1.10330521 C66.7322931,1.61844258 67.153684,2.04920812 67.6688214,2.04920812 L68.7457352,2.04920812 C69.2702472,2.04920812 69.6916381,1.61844258 69.6916381,1.10330521 Z"
                        id="Path"></path>
                    <path
                        d="M58.9216755,102.609604 C58.9216755,103.124742 58.49091,103.555732 57.9757726,103.555732 L53.9580289,103.555732 C53.4428915,103.555732 53.012126,103.124732 53.012126,102.609604 C53.012126,102.094701 53.4428915,101.663926 53.9580289,101.663926 L57.9757726,101.663926 C58.49091,101.663926 58.9216755,102.094701 58.9216755,102.609604 Z"
                        id="Path"></path>
                    <path
                        d="M64.0819556,102.609604 C64.0819556,103.124742 63.6605647,103.555732 63.1360527,103.555732 L62.0682793,103.555732 C61.5437673,103.555732 61.1223764,103.124732 61.1223764,102.609604 C61.1223764,102.094701 61.5437673,101.663926 62.0682793,101.663926 L63.1360527,101.663926 C63.6605647,101.663926 64.0819556,102.094701 64.0819556,102.609604 Z"
                        id="Path"></path>
                    <path
                        d="M30.2122987,88.0973217 C30.7272019,88.0973217 31.1488269,87.6665561 31.1488269,87.1514188 C31.1488269,86.6271409 30.7272019,86.2055159 30.2122987,86.2055159 L17.7936998,86.2055159 C17.2787966,86.2055159 16.8480217,86.6271409 16.8480217,87.1514188 C16.8480217,87.6665561 17.2787872,88.0973217 17.7936998,88.0973217 L30.2122987,88.0973217 Z"
                        id="Path"></path>
                    <path
                        d="M39.9520989,87.1514188 C39.9520989,86.6271409 39.5213334,86.2055159 39.006196,86.2055159 L34.2954308,86.2055159 C33.7802934,86.2055159 33.3495279,86.6271409 33.3495279,87.1514188 C33.3495279,87.6665561 33.7802934,88.0973217 34.2954308,88.0973217 L39.006196,88.0973217 C39.5213334,88.0973217 39.9520989,87.6665561 39.9520989,87.1514188 L39.9520989,87.1514188 Z"
                        id="Path"></path>
                    <path
                        d="M43.2580718,88.0973217 C43.7732091,88.0973217 44.2039747,87.6665561 44.2039747,87.1514188 C44.2039747,86.6271409 43.7732091,86.2055159 43.2580718,86.2055159 L43.0987028,86.2055159 C42.5744249,86.2055159 42.1530246,86.6271409 42.1530246,87.1514188 C42.1530246,87.6665561 42.5744155,88.0973217 43.0987028,88.0973217 L43.2580718,88.0973217 Z"
                        id="Path"></path>
                    <g id="Path" transform="translate(83.592464, 88.970185)">
                        <path
                            d="M0.146826559,1.01870862 C0.146826559,0.503805378 0.56821745,0.0730304738 1.09272947,0.0730304738 L1.25209848,0.0730304738 C1.77637637,0.0730304738 2.19777662,0.503796012 2.19777662,1.01870862 C2.19777662,1.53384599 1.77638573,1.96483629 1.25209848,1.96483629 L1.09272947,1.96483629 C0.56821745,1.96483629 0.146826559,1.53384599 0.146826559,1.01870862 Z"></path>
                        <path
                            d="M10.3082518,1.01870862 C10.3082518,1.53384599 9.8774863,1.96483629 9.36234893,1.96483629 L5.34460523,1.96483629 C4.82946786,1.96483629 4.39870232,1.53383662 4.39870232,1.01870862 C4.39870232,0.503805378 4.82946786,0.0730304738 5.34460523,0.0730304738 L9.36234893,0.0730304738 C9.8774863,0.0730304738 10.3082518,0.503805378 10.3082518,1.01870862 Z"></path>
                        <path
                            d="M15.4685319,1.01870862 C15.4685319,1.53384599 15.047141,1.96483629 14.522629,1.96483629 L13.4548557,1.96483629 C12.9303437,1.96483629 12.5089528,1.53383662 12.5089528,1.01870862 C12.5089528,0.503805378 12.9303437,0.0730304738 13.4548557,0.0730304738 L14.522629,0.0730304738 C15.047141,0.0730304738 15.4685319,0.503805378 15.4685319,1.01870862 Z"></path>
                    </g>
                </g>
                <circle cx="61.9335504" cy="61.9335504" fill="#2E6BCE" id="Oval"
                    r="43.9681288"></circle>
                <g id="Group" transform="translate(15.920980, 15.920980)">
                    <circle cx="44.0777026" cy="44.0777026" fill="#FAD553" id="Oval"
                        r="43.9681288"></circle>
                    <path
                        d="M60.0131711,9.16002371 C59.9234892,9.16002371 59.8338072,9.14170521 59.7479182,9.10318581 C54.7978138,6.87317154 49.5180327,5.74269764 44.0551042,5.74269764 C43.69765,5.74269764 43.4083939,5.45344152 43.4083939,5.09598742 C43.4083939,4.73853331 43.69765,4.44927719 44.0551042,4.44927719 C49.7024445,4.44927719 55.1615895,5.61827986 60.278424,7.92345052 C60.6043077,8.07060721 60.7495633,8.45331948 60.6030434,8.77920322 C60.4944155,9.01855175 60.259478,9.16002371 60.0131711,9.16002371 L60.0131711,9.16002371 Z"
                        fill="#FCDE7E" id="Path"></path>
                    <path
                        d="M19.3045634,14.6292645 C19.1188873,14.6292645 18.9332112,14.5490602 18.8056373,14.3936995 C18.5782763,14.1183415 18.6174326,13.7103617 18.8927906,13.4836375 C24.5312901,8.83919722 31.3116424,5.84943377 38.503758,4.83704672 C38.8485877,4.78715786 39.1833122,5.03345542 39.2338379,5.38712596 C39.2830993,5.74079649 39.0367924,6.06794454 38.6831219,6.1178334 C31.728463,7.0973764 25.1691595,9.98925392 19.7163361,14.4814803 C19.5950744,14.5806399 19.4498189,14.6292645 19.3045634,14.6292645 L19.3045634,14.6292645 Z"
                        fill="#FCDE7E" id="Path"></path>
                    <path
                        d="M5.07315486,44.7246376 C4.71569138,44.7246376 4.42644463,44.4353908 4.42644463,44.0779273 C4.42644463,35.3505048 7.22043622,27.0670622 12.5052652,20.1231359 C12.7199924,19.8383096 13.1267079,19.7833635 13.4109161,19.9999824 C13.695115,20.2166014 13.7506886,20.622062 13.5334421,20.9062608 C8.42165546,27.6234536 5.71987445,35.6359586 5.71987445,44.0779273 C5.71986508,44.4353908 5.43060896,44.7246376 5.07315486,44.7246376 L5.07315486,44.7246376 Z"
                        fill="#FCDE7E" id="Path"></path>
                    <path
                        d="M10.1748364,63.9895202 C9.95126834,63.9895202 9.7327482,63.872679 9.61275083,63.6636365 C7.35937018,59.7151772 5.81837849,55.4521942 5.03146998,50.9940574 C4.96957483,50.6422881 5.20451231,50.3069267 5.55566358,50.2450409 C5.90049329,50.1818814 6.24279437,50.4168282 6.30468015,50.7692345 C7.06633049,55.080842 8.55679649,59.2029805 10.7369125,63.0219835 C10.9137478,63.3327049 10.8051199,63.7274328 10.4956628,63.9042681 C10.3946208,63.9623609 10.2847286,63.9895202 10.1748364,63.9895202 L10.1748364,63.9895202 Z"
                        fill="#FCDE7E" id="Path"></path>
                    <path
                        d="M88.0460748,44.0813176 C88.0460748,68.3636879 68.3611499,88.0485473 44.0789482,88.0485473 C30.8235707,88.0485473 18.9422206,82.1826962 10.883423,72.9084067 C18.6076459,79.6197367 28.6834069,83.6799988 39.7104559,83.6799988 C63.9926576,83.6799988 83.6775732,63.9951394 83.6775732,39.7128253 C83.6775732,28.6769636 79.6174235,18.6011464 72.905981,10.8857456 C82.1803361,18.9446556 88.0460748,30.8259963 88.0460748,44.0813176 L88.0460748,44.0813176 Z"
                        fill="#FAB941" id="Path"></path>
                    <g fill="#386384" id="Oval" transform="translate(23.003622, 29.874081)">
                        <g transform="translate(30.693250, 0.000000)">
                            <circle cx="5.68744833" cy="5.5997366" r="5.23425645"></circle>
                        </g>
                        <g>
                            <circle cx="5.76839949" cy="5.5997366" r="5.23425645"></circle>
                        </g>
                    </g>
                    <g id="Path" transform="translate(26.010609, 48.245839)">
                        <path
                            d="M5.01985001,0.362085239 L35.0941231,17.725469 C35.9719592,18.2322994 36.2727346,19.3547847 35.7659136,20.2326207 L33.6222566,23.9455339 C33.1154356,24.8233793 31.9929503,25.1241453 31.1151049,24.6173243 L1.04084112,7.25394052 C0.16299572,6.74711952 -0.137770331,5.62462484 0.369050668,4.74678881 L2.51270766,1.03387569 C3.0195193,0.156039656 4.14201397,-0.14473576 5.01985001,0.362085239 Z"
                            fill="#E53946"></path>
                        <path
                            d="M31.1151049,0.362085239 L1.04084112,17.725469 C0.16299572,18.2322994 -0.137770331,19.3547847 0.369050668,20.2326207 L2.51270766,23.9455339 C3.01952866,24.8233793 4.14201397,25.1241453 5.01985937,24.6173243 L35.0941325,7.25393115 C35.9719685,6.74711015 36.272744,5.62461547 35.765923,4.74677944 L33.622266,1.03386633 C33.1154356,0.156039656 31.9929503,-0.14473576 31.1151049,0.362085239 Z"
                            fill="#F34B50"></path>
                    </g>
                </g>
            </g>
        </g>
    </g>
</svg>

<svg xmlns="http://www.w3.org/2000/svg" xmlns:xlink="http://www.w3.org/1999/xlink" width="120" height="120" viewBox="0 0 120 120">
    <defs>
        <circle id="cp5s1nluxa" cx="59.938" cy="59.938" r="59.938"/>
    </defs>
    <g fill="none" fill-rule="evenodd">
        <g>
            <g transform="translate(-120 -97) translate(120 97)">
                <circle cx="59.938" cy="59.938" r="59.938" fill="#E5AE48" fill-rule="nonzero"/>
                <g fill="#CF9730" fill-rule="nonzero">
                    <path d="M8.874 47.227H.23c-.066.627-.113 1.255-.141 1.892h8.785c.515 0 .945-.43.945-.946 0-.525-.43-.946-.945-.946zM19.147 47.227h-6.19c-.515 0-.937.421-.937.946 0 .515.422.946.937.946h6.19c.525 0 .946-.43.946-.946 0-.525-.421-.946-.946-.946zM25.923 11.79c-.515 0-.937.421-.937.946 0 .515.422.946.937.946h.168c.515 0 .946-.431.946-.946 0-.525-.43-.946-.946-.946h-.168zM41.713 12.736c0-.525-.422-.946-.946-.946H30.175c-.515 0-.937.421-.937.946 0 .515.422.946.937.946h10.592c.524 0 .946-.431.946-.946zM55.316.157c-.524 0-.946.422-.946.946 0 .515.422.946.946.946h.16c.523 0 .945-.43.945-.946 0-.524-.422-.946-.946-.946h-.16zM103.34 49.119c-.514 0-.936.43-.936.946 0 .524.422.946.937.946h12.418c.515 0 .946-.422.946-.946 0-.515-.43-.946-.946-.946h-12.418zM64.531 1.103c0-.524-.43-.946-.946-.946h-4.017c-.525 0-.946.422-.946.946 0 .515.421.946.946.946h4.017c.516 0 .946-.43.946-.946zM93.165 18.677c0-.524.422-.945.946-.945h10.593c.515 0 .936.42.936.945 0 .516-.421.946-.936.946H94.11c-.524 0-.946-.43-.946-.946zM90.019 17.732c.524 0 .946.42.946.945 0 .516-.422.946-.946.946h-.16c-.524 0-.945-.43-.945-.946 0-.524.421-.945.946-.945h.159zM80.803 18.677c0-.524.431-.945.946-.945h4.018c.525 0 .946.42.946.945 0 .516-.421.946-.946.946h-4.018c-.515 0-.946-.43-.946-.946zM93.601 50.065c0 .524.43.946.946.946h4.71c.516 0 .947-.422.947-.946 0-.515-.431-.946-.946-.946h-4.711c-.515 0-.946.43-.946.946zM48.76 102.61c0-.515.422-.946.946-.946h.16c.524 0 .945.43.945.946 0 .515-.421.946-.945.946h-.16c-.524 0-.946-.431-.946-.946zM90.295 49.119c-.515 0-.946.43-.946.946 0 .524.431.946.946.946h.16c.524 0 .945-.422.945-.946 0-.515-.421-.946-.946-.946h-.159zM69.692 1.103c0-.524-.422-.946-.946-.946h-1.077c-.515 0-.937.422-.937.946 0 .515.422.946.937.946h1.077c.524 0 .946-.43.946-.946zM58.922 102.61c0 .515-.431.946-.946.946h-4.018c-.515 0-.946-.431-.946-.946 0-.515.43-.946.946-.946h4.018c.515 0 .946.43.946.946zM64.082 102.61c0 .515-.421.946-.946.946h-1.068c-.524 0-.946-.431-.946-.946 0-.515.422-.946.946-.946h1.068c.525 0 .946.43.946.946zM30.212 88.097c.515 0 .937-.43.937-.946 0-.524-.422-.945-.937-.945H17.794c-.515 0-.946.421-.946.945 0 .516.43.946.946.946h12.418zM39.952 87.151c0-.524-.43-.945-.946-.945h-4.71c-.516 0-.946.421-.946.945 0 .516.43.946.945.946h4.711c.515 0 .946-.43.946-.946zM43.258 88.097c.515 0 .946-.43.946-.946 0-.524-.43-.945-.946-.945h-.16c-.524 0-.945.421-.945.945 0 .516.421.946.946.946h.16z" transform="translate(0 7.492)"/>
                    <g>
                        <path d="M.147 1.019c0-.515.421-.946.946-.946h.16c.523 0 .945.43.945.946 0 .515-.422.946-.946.946h-.16c-.524 0-.945-.431-.945-.946zM10.308 1.019c0 .515-.43.946-.946.946H5.345c-.516 0-.946-.431-.946-.946 0-.515.43-.946.946-.946h4.017c.515 0 .946.43.946.946zM15.469 1.019c0 .515-.422.946-.946.946h-1.068c-.525 0-.946-.431-.946-.946 0-.515.421-.946.946-.946h1.068c.524 0 .946.43.946.946z" transform="translate(0 7.492) translate(83.592 88.97)"/>
                    </g>
                </g>
                <g>
                    <g>
                        <mask id="fvr1yhs06b" fill="#fff">
                            <use xlink:href="#cp5s1nluxa"/>
                        </mask>
                        <use fill="#E5AE48" fill-rule="nonzero" xlink:href="#cp5s1nluxa"/>
                        <g mask="url(#fvr1yhs06b)">
                            <g>
                                <path fill="#FFD375" d="M37.248 117c-8.271 0-16.371-2.699-22.981-7.78C5.798 102.716.614 92.935.052 82.398c-.84-15.595 8.553-29.985 23.364-35.812 6.66-2.622 11.764-5.642 15.17-8.984 3.268-3.206 6.093-7.784 8.4-13.612C52.77 9.419 66.608 0 82.246 0c11.575 0 22.366 5.094 29.608 13.978 7.071 8.676 9.711 19.806 7.242 30.538-4.135 17.98-12.897 33.638-26.036 46.525-13.497 13.24-29.909 21.757-48.781 25.302-2.336.445-4.69.657-7.03.657" transform="translate(-14 16)"/>
                                <path fill="#FDFAFB" d="M95.457 62.461L87.2 58.326c1.262-2.398 2.427-5.01 3.46-7.77l8.727 3.1c-1.17 3.11-2.49 6.07-3.93 8.805M62.663 91l-3.767-8.265c8.745-3.782 15.66-8.301 20.558-13.435 1.136-1.19 2.238-2.496 3.278-3.878l7.491 5.344c-1.253 1.66-2.586 3.242-3.968 4.69C80.498 81.489 72.56 86.714 62.663 91" transform="translate(-14 16)"/>
                                <path fill="#FEC96B" d="M119.11 35.225c-4.136 18.032-12.9 33.736-26.042 46.66-13.5 13.278-29.915 21.819-48.792 25.374-2.336.442-4.69.659-7.027.659-8.273 0-16.374-2.706-22.986-7.802C6.5 94.136 1.545 85.386.327 75.826c-.273 2.126-.403 4.278-.282 6.472.568 10.57 5.747 20.376 14.218 26.9C20.875 114.294 28.982 117 37.25 117c2.336 0 4.695-.217 7.027-.659 18.877-3.56 35.293-12.096 48.792-25.375 13.143-12.928 21.906-28.626 26.042-46.66.956-4.173 1.126-8.4.586-12.528-.148 1.148-.323 2.297-.586 3.447" transform="translate(-14 16)"/>
                            </g>
                        </g>
                    </g>
                    <g>
                        <path fill="#231F20" stroke="#231F20" d="M30.199 16.39c.697.477 1.648.297 2.124-.402.476-.7.296-1.653-.4-2.13-.698-.478-1.649-.298-2.125.401-.475.7-.296 1.653.4 2.13zM8.4 1.994c-.476.7-.297 1.653.4 2.13.697.478 1.648.298 2.124-.401.476-.7.297-1.654-.4-2.13-.698-.478-1.649-.299-2.124.4" transform="translate(39 36)"/>
                        <path fill="#F16A55" d="M35.46 23.653c-.498.895-1.846.891-3.01-.009-1.163-.9-1.702-2.356-1.203-3.251.499-.895 1.846-.891 3.01.01 1.163.9 1.702 2.355 1.203 3.25" transform="translate(39 36) rotate(-14 33.354 22.023)"/>
                        <path fill="#F16A55" d="M1.881 5.245C.717 4.345.179 2.89.677 1.995c.499-.896 1.846-.891 3.01.009 1.163.9 1.702 2.356 1.203 3.251-.498.896-1.845.891-3.009-.01z" transform="translate(39 36) rotate(-11 2.784 3.625)"/>
                    </g>
                    <g fill-rule="nonzero">
                        <path fill="#E53946" d="M3.908.45l19.649 11.59c.573.338.77 1.087.439 1.673l-1.4 2.478c-.332.586-1.065.787-1.639.449L1.308 5.05C.734 4.712.538 3.963.869 3.377L2.27.899C2.602.313 3.335.112 3.909.45z" transform="rotate(31 -52.932 103.297)"/>
                        <path fill="#F34B50" d="M20.957.45L1.308 12.04c-.574.338-.77 1.087-.439 1.673l1.4 2.478c.332.586 1.065.787 1.639.449L23.557 5.05c.573-.338.77-1.087.439-1.673l-1.4-2.478C22.263.313 21.53.112 20.956.45z" transform="rotate(31 -52.932 103.297)"/>
                    </g>
                </g>
            </g>
        </g>
    </g>
</svg>
